material/.icons/material/zigbee.svg

<svg xmlns="http://www.w3.org/2000/svg" viewBox="0 0 24 24"><path d="M4.06 6.15c-.09.02-.18.07-.26.13A9.892 9.892 0 002 12a10 10 0 0010 10c3 0 5.68-1.32 7.5-3.4l-2.5.25c-2.75.3-5.55.34-8.34.11-.71-.02-1.42-.2-2.07-.51a2.615 2.615 0 01-1.52-2.16c-.01-.16.05-.29.16-.42l2.19-2.27 7.61-7.9v-.1h-4.19c-2.27.04-4.53.22-6.78.55M20.17 17.5c.09-.03.18-.06.26-.11A9.984 9.984 0 0022 12 10 10 0 0012 2C9.22 2 6.7 3.13 4.89 4.97h.28c3.11-.4 6.26-.5 9.39-.32.94-.01 1.89.17 2.77.52A2.67 2.67 0 0119 7.37c0 .16-.07.33-.18.45l-9.11 9.37-.71.76v.11h4.14c2.36-.06 4.7-.25 7.03-.56z"/></svg>

<?xml version="1.0" encoding="UTF-8"?><!DOCTYPE svg PUBLIC "-//W3C//DTD SVG 1.1//EN" "http://www.w3.org/Graphics/SVG/1.1/DTD/svg11.dtd"><svg xmlns="http://www.w3.org/2000/svg" xmlns:xlink="http://www.w3.org/1999/xlink" version="1.1" id="mdi-zigbee" width="24" height="24" viewBox="0 0 24 24"><path d="M4.06,6.15C3.97,6.17 3.88,6.22 3.8,6.28C2.66,7.9 2,9.87 2,12A10,10 0 0,0 12,22C15,22 17.68,20.68 19.5,18.6L17,18.85C14.25,19.15 11.45,19.19 8.66,18.96C7.95,18.94 7.24,18.76 6.59,18.45C5.73,18.06 5.15,17.23 5.07,16.29C5.06,16.13 5.12,16 5.23,15.87L7.42,13.6L15.03,5.7V5.6H10.84C8.57,5.64 6.31,5.82 4.06,6.15M20.17,17.5C20.26,17.47 20.35,17.44 20.43,17.39C21.42,15.83 22,14 22,12A10,10 0 0,0 12,2C9.22,2 6.7,3.13 4.89,4.97H5.17C8.28,4.57 11.43,4.47 14.56,4.65C15.5,4.64 16.45,4.82 17.33,5.17C18.25,5.53 18.89,6.38 19,7.37C19,7.53 18.93,7.7 18.82,7.82L9.71,17.19L9,17.95V18.06H13.14C15.5,18 17.84,17.81 20.17,17.5Z" /></svg>
